CSETWebApi/CSETWeb_Api/CSETWeb_ApiCore/Diagram/src/main/webapp/img/lib/mscae/TimeSeriesInsights.svg

<svg xmlns="http://www.w3.org/2000/svg" width="23" height="23"><path d="M12.66 15.093l-2-11L8.15 11H.025L0 11.5c0 .17.018.333.025.5H8.85l1.488-4.093 2 11L14.85 12h8.124l.025-.5c0-.17-.018-.333-.025-.5H14.15l-1.49 4.093z" fill="#0072c6"/><path d="M1.12 10c.732-5.08 5.1-9 10.38-9s9.648 3.92 10.38 9h1c-.737-5.64-5.55-10-11.4-10S.846 4.36.1 10h1zm20.76 3c-.732 5.08-5.1 9-10.38 9s-9.648-3.92-10.38-9h-1c.737 5.64 5.55 10 11.4 10s10.654-4.36 11.4-10h-1z" fill="#59b4d9"/></svg>

<?xml version="1.0" encoding="UTF-8" standalone="no"?>
<svg
   xmlns:dc="http://purl.org/dc/elements/1.1/"
   xmlns:cc="http://creativecommons.org/ns#"
   xmlns:rdf="http://www.w3.org/1999/02/22-rdf-syntax-ns#"
   xmlns:svg="http://www.w3.org/2000/svg"
   xmlns="http://www.w3.org/2000/svg"
   xmlns:sodipodi="http://sodipodi.sourceforge.net/DTD/sodipodi-0.dtd"
   xmlns:inkscape="http://www.inkscape.org/namespaces/inkscape"
   version="1.1"
   id="Layer_1"
   x="0px"
   y="0px"
   width="23"
   height="23"
   viewBox="0 0 23 23"
   enable-background="new 0 0 24 24"
   xml:space="preserve"
   inkscape:version="0.91 r13725"
   sodipodi:docname="TimeSeriesInsights-color.svg"><metadata
     id="metadata13"><rdf:RDF><cc:Work
         rdf:about=""><dc:format>image/svg+xml</dc:format><dc:type
           rdf:resource="http://purl.org/dc/dcmitype/StillImage" /><dc:title></dc:title></cc:Work></rdf:RDF></metadata><defs
     id="defs11" /><sodipodi:namedview
     pagecolor="#ffffff"
     bordercolor="#666666"
     borderopacity="1"
     objecttolerance="10"
     gridtolerance="10"
     guidetolerance="10"
     inkscape:pageopacity="0"
     inkscape:pageshadow="2"
     inkscape:window-width="1920"
     inkscape:window-height="1018"
     id="namedview9"
     showgrid="false"
     fit-margin-top="0"
     fit-margin-left="0"
     fit-margin-right="0"
     fit-margin-bottom="0"
     inkscape:zoom="33.45638"
     inkscape:cx="12"
     inkscape:cy="11"
     inkscape:window-x="-8"
     inkscape:window-y="-8"
     inkscape:window-maximized="1"
     inkscape:current-layer="Layer_1" /><path
     d="M 12.661,15.093 10.661,4.093 8.15,11 0.025,11 C 0.018,11.167 0,11.331 0,11.5 0,11.669 0.018,11.833 0.025,12 L 8.85,12 10.338,7.907 12.338,18.907 14.851,12 22.975,12 C 22.982,11.833 23,11.669 23,11.5 23,11.331 22.982,11.167 22.975,11 L 14.15,11 12.661,15.093 Z"
     id="path3"
     inkscape:connector-curvature="0"
     style="fill:#0072c6" /><path
     d="M 1.12,10 C 1.852,4.92 6.221,1 11.5,1 16.779,1 21.148,4.92 21.88,10 L 22.891,10 C 22.154,4.359 17.342,0 11.5,0 5.658,0 0.846,4.359 0.109,10 L 1.12,10 Z"
     id="path5"
     inkscape:connector-curvature="0"
     style="fill:#59b4d9" /><path
     d="M 21.88,13 C 21.148,18.08 16.779,22 11.5,22 6.221,22 1.852,18.08 1.12,13 L 0.109,13 C 0.846,18.641 5.658,23 11.5,23 17.342,23 22.154,18.641 22.891,13 L 21.88,13 Z"
     id="path7"
     inkscape:connector-curvature="0"
     style="fill:#59b4d9" /></svg>
